art/standard/gamepad/vita/dpup.svg

<svg width="100px" height="100px" preserveAspectRatio="none" version="1.1" viewBox="0 0 100 100" xmlns="http://www.w3.org/2000/svg">
 <path d="m65.5 29.801-15.5 15.5-15.449-15.352-4.5508 4.5508h-22.75c-2.6 10.3-2.6 20.616 0 30.949h22.6l4.7012 4.7012v22.6c10.333 2.6 20.649 2.6 30.949 0v-22.6l4.6992-4.7012h22.551c2.6-10.333 2.6-20.649 0-30.949h-22.551zm-52.1 10.699h13.5c0.43333 0 0.79961 0.14922 1.0996 0.44922l7.8496 7.9004c0.3 0.3 0.45117 0.65078 0.45117 1.0508-0.03333 0.43333-0.1845 0.78216-0.45117 1.0488l-8.0488 8.0508c-0.3 0.3-0.65078 0.44922-1.0508 0.44922h-13.35c-0.36667 0-0.68451-0.13177-0.95117-0.39844-0.3-0.23333-0.46667-0.53372-0.5-0.90039-0.83333-5.4667-0.83333-10.934 0-16.4 0.03333-0.33333 0.2-0.63372 0.5-0.90039 0.26667-0.23333 0.5845-0.34961 0.95117-0.34961zm59.9 0h13.299c0.36667 0 0.7 0.11628 1 0.34961 0.26667 0.26667 0.43333 0.56706 0.5 0.90039 0.8 5.4667 0.8 10.934 0 16.4-0.06667 0.36667-0.23333 0.66706-0.5 0.90039-0.3 0.26667-0.63333 0.39844-1 0.39844h-13.299c-0.4 0-0.75078-0.14922-1.0508-0.44922l-8-7.9492c-0.3-0.26667-0.44922-0.61745-0.44922-1.0508 0-0.4 0.14922-0.75078 0.44922-1.0508l8-8c0.3-0.3 0.65078-0.44922 1.0508-0.44922zm-23.25 23.25c0.4 0 0.74883 0.14922 1.0488 0.44922l7.9512 7.9512c0.3 0.3 0.44922 0.64883 0.44922 1.0488v13.4c0 0.36667-0.11628 0.68451-0.34961 0.95117-0.26667 0.3-0.56706 0.46667-0.90039 0.5-5.4667 0.83333-10.934 0.83333-16.4 0-0.36667-0.03333-0.66706-0.2-0.90039-0.5-0.26667-0.26667-0.39844-0.5845-0.39844-0.95117v-13.35c0-0.4 0.14922-0.75078 0.44922-1.0508l8-8c0.3-0.3 0.65078-0.44922 1.0508-0.44922z" fill="#353535"/>
 <path d="m50.05 63.75c-0.4 0-0.75 0.15-1.05 0.45l-8 8c-0.3 0.3-0.45 0.65-0.45 1.05v13.35c0 0.36667 0.13333 0.68333 0.4 0.95 0.23333 0.3 0.53333 0.46667 0.9 0.5 5.4667 0.83333 10.933 0.83333 16.4 0 0.33333-0.03333 0.63333-0.2 0.9-0.5 0.23333-0.26667 0.35-0.58333 0.35-0.95v-13.4c0-0.4-0.15-0.75-0.45-1.05l-7.95-7.95c-0.3-0.3-0.65-0.45-1.05-0.45m-23.15-23.25h-13.5c-0.36667 0-0.68333 0.11667-0.95 0.35-0.3 0.26667-0.46667 0.56667-0.5 0.9-0.83333 5.4667-0.83333 10.933 0 16.4 0.03333 0.36667 0.2 0.66667 0.5 0.9 0.26667 0.26667 0.58333 0.4 0.95 0.4h13.35c0.4 0 0.75-0.15 1.05-0.45l8.05-8.05c0.26667-0.26667 0.41667-0.61667 0.45-1.05 0-0.4-0.15-0.75-0.45-1.05l-7.85-7.9c-0.3-0.3-0.66667-0.45-1.1-0.45m60.7 0.35c-0.3-0.23333-0.63333-0.35-1-0.35h-13.3c-0.4 0-0.75 0.15-1.05 0.45l-8 8c-0.3 0.3-0.45 0.65-0.45 1.05 0 0.43333 0.15 0.78333 0.45 1.05l8 7.95c0.3 0.3 0.65 0.45 1.05 0.45h13.3c0.36667 0 0.7-0.13333 1-0.4 0.26667-0.23333 0.43333-0.53333 0.5-0.9 0.8-5.4667 0.8-10.933 0-16.4-0.06667-0.33333-0.23333-0.63333-0.5-0.9" fill="#535353" stroke="#616161" stroke-linecap="round" stroke-linejoin="round" stroke-width="4"/>
 <path d="m54.5 76.6h-9l4.55 6.2 4.45-6.2m-37.3-26.55 6.2 4.45v-9l-6.2 4.55m59.45-4.55v9l6.2-4.45-6.2-4.55z" fill="#D6D6D6"/>
 <path d="m65.5 29.8v-22.55c-10.3-2.6-20.617-2.6-30.95 0v22.7l15.45 15.35 15.5-15.5" fill="#d7d7d7"/>
 <path d="m40.95 12.4c-0.26667 0.3-0.4 0.63333-0.4 1v13.4c0 0.43333 0.15 0.78333 0.45 1.05l7.95 7.9c0.26667 0.3 0.61667 0.45 1.05 0.45 0.4 0 0.75-0.15 1.05-0.45l8-8c0.3-0.3 0.45-0.65 0.45-1.05v-13.3c0-0.36667-0.11667-0.7-0.35-1-0.26667-0.26667-0.56667-0.43333-0.9-0.5-5.4667-0.8-10.933-0.8-16.4 0-0.36667 0.06667-0.66667 0.23333-0.9 0.5" fill="#f5f5f5" stop-color="#000000" stroke="#fff" stroke-linecap="round" stroke-linejoin="round" stroke-width="4" style="-inkscape-stroke:none;font-variation-settings:normal"/>
 <path d="m50.05 17.15-4.55 6.2h9l-4.45-6.2z" fill="#616161"/>
 <path d="m65.5 29.8 4.7 4.7h22.55q3.9 15.45 0 30.95h-22.55l-4.7 4.7v22.6q-15.45 3.9-30.95 0v-22.6l-4.7-4.7h-22.6q-3.9-15.5 0-30.95h22.75l4.55-4.55m35.65 35.5-15.5-15.45 15.5-15.5m-4.7 35.65-15.4-15.55-15.55 15.55m-4.55-35.65 15.4 15.4-15.55 15.55" fill="none" stroke="#202020" stroke-linecap="round" stroke-linejoin="round" stroke-width="5"/>
 <path d="m34.55 29.95v-22.7q15.5-3.9 30.95 0v22.55l-15.5 15.5-15.45-15.35z" fill="none" stroke="#404040" stroke-linecap="round" stroke-linejoin="round" stroke-width="5"/>
</svg>

<svg xmlns="http://www.w3.org/2000/svg" version="1.1" xmlns:xlink="http://www.w3.org/1999/xlink" preserveAspectRatio="none" x="0px" y="0px" width="100px" height="100px" viewBox="0 0 100 100">
<defs/>

<g id="PS_Vita">
<g>
<g>
<g>
<path fill="#353535" stroke="none" d="
M 34.55 70.15
L 34.55 92.75
Q 50.05 96.65 65.5 92.75
L 65.5 70.15 50.1 54.6 34.55 70.15
M 49 64.2
Q 49.45 63.75 50.05 63.75 50.65 63.75 51.1 64.2
L 59.05 72.15
Q 59.5 72.6 59.5 73.2
L 59.5 86.6
Q 59.5 87.15 59.15 87.55 58.75 88 58.25 88.05 50.05 89.3 41.85 88.05 41.3 88 40.95 87.55 40.55 87.15 40.55 86.6
L 40.55 73.25
Q 40.55 72.65 41 72.2
L 49 64.2
M 30 34.5
L 7.25 34.5
Q 3.35 49.95 7.25 65.45
L 29.85 65.45 45.4 49.9 30 34.5
M 13.4 40.5
L 26.9 40.5
Q 27.55 40.5 28 40.95
L 35.85 48.85
Q 36.3 49.3 36.3 49.9 36.25 50.55 35.85 50.95
L 27.8 59
Q 27.35 59.45 26.75 59.45
L 13.4 59.45
Q 12.85 59.45 12.45 59.05 12 58.7 11.95 58.15 10.7 49.95 11.95 41.75 12 41.25 12.45 40.85 12.85 40.5 13.4 40.5
M 70.2 34.5
L 65.5 29.8 50 45.3 34.55 29.95 30 34.5 45.4 49.9 29.85 65.45 34.55 70.15 50.1 54.6 65.5 70.15 70.2 65.45 54.7 50 70.2 34.5
M 92.75 65.45
Q 96.65 49.95 92.75 34.5
L 70.2 34.5 54.7 50 70.2 65.45 92.75 65.45
M 86.6 40.5
Q 87.15 40.5 87.6 40.85 88 41.25 88.1 41.75 89.3 49.95 88.1 58.15 88 58.7 87.6 59.05 87.15 59.45 86.6 59.45
L 73.3 59.45
Q 72.7 59.45 72.25 59
L 64.25 51.05
Q 63.8 50.65 63.8 50 63.8 49.4 64.25 48.95
L 72.25 40.95
Q 72.7 40.5 73.3 40.5
L 86.6 40.5 Z"/>

<path fill="#535353" stroke="none" d="
M 50.05 63.75
Q 49.45 63.75 49 64.2
L 41 72.2
Q 40.55 72.65 40.55 73.25
L 40.55 86.6
Q 40.55 87.15 40.95 87.55 41.3 88 41.85 88.05 50.05 89.3 58.25 88.05 58.75 88 59.15 87.55 59.5 87.15 59.5 86.6
L 59.5 73.2
Q 59.5 72.6 59.05 72.15
L 51.1 64.2
Q 50.65 63.75 50.05 63.75
M 45.5 76.6
L 54.5 76.6 50.05 82.8 45.5 76.6
M 26.9 40.5
L 13.4 40.5
Q 12.85 40.5 12.45 40.85 12 41.25 11.95 41.75 10.7 49.95 11.95 58.15 12 58.7 12.45 59.05 12.85 59.45 13.4 59.45
L 26.75 59.45
Q 27.35 59.45 27.8 59
L 35.85 50.95
Q 36.25 50.55 36.3 49.9 36.3 49.3 35.85 48.85
L 28 40.95
Q 27.55 40.5 26.9 40.5
M 23.4 54.5
L 17.2 50.05 23.4 45.5 23.4 54.5
M 87.6 40.85
Q 87.15 40.5 86.6 40.5
L 73.3 40.5
Q 72.7 40.5 72.25 40.95
L 64.25 48.95
Q 63.8 49.4 63.8 50 63.8 50.65 64.25 51.05
L 72.25 59
Q 72.7 59.45 73.3 59.45
L 86.6 59.45
Q 87.15 59.45 87.6 59.05 88 58.7 88.1 58.15 89.3 49.95 88.1 41.75 88 41.25 87.6 40.85
M 76.65 54.5
L 76.65 45.5 82.85 50.05 76.65 54.5 Z"/>

<path fill="#D6D6D6" stroke="none" d="
M 54.5 76.6
L 45.5 76.6 50.05 82.8 54.5 76.6
M 17.2 50.05
L 23.4 54.5 23.4 45.5 17.2 50.05
M 76.65 45.5
L 76.65 54.5 82.85 50.05 76.65 45.5 Z"/>

<path fill="#D7D7D7" stroke="none" d="
M 65.5 29.8
L 65.5 7.25
Q 50.05 3.35 34.55 7.25
L 34.55 29.95 50 45.3 65.5 29.8
M 40.55 13.4
Q 40.55 12.85 40.95 12.4 41.3 12 41.85 11.9 50.05 10.7 58.25 11.9 58.75 12 59.15 12.4 59.5 12.85 59.5 13.4
L 59.5 26.7
Q 59.5 27.3 59.05 27.75
L 51.05 35.75
Q 50.6 36.2 50 36.2 49.35 36.2 48.95 35.75
L 41 27.85
Q 40.55 27.45 40.55 26.8
L 40.55 13.4 Z"/>

<path fill="#F5F5F5" stroke="none" d="
M 40.95 12.4
Q 40.55 12.85 40.55 13.4
L 40.55 26.8
Q 40.55 27.45 41 27.85
L 48.95 35.75
Q 49.35 36.2 50 36.2 50.6 36.2 51.05 35.75
L 59.05 27.75
Q 59.5 27.3 59.5 26.7
L 59.5 13.4
Q 59.5 12.85 59.15 12.4 58.75 12 58.25 11.9 50.05 10.7 41.85 11.9 41.3 12 40.95 12.4
M 45.5 23.35
L 50.05 17.15 54.5 23.35 45.5 23.35 Z"/>

<path fill="#616161" stroke="none" d="
M 50.05 17.15
L 45.5 23.35 54.5 23.35 50.05 17.15 Z"/>
</g>
</g>

<g>
<path stroke="#616161" stroke-width="4" stroke-linejoin="round" stroke-linecap="round" fill="none" d="
M 87.6 40.85
Q 88 41.25 88.1 41.75 89.3 49.95 88.1 58.15 88 58.7 87.6 59.05 87.15 59.45 86.6 59.45
L 73.3 59.45
Q 72.7 59.45 72.25 59
L 64.25 51.05
Q 63.8 50.65 63.8 50 63.8 49.4 64.25 48.95
L 72.25 40.95
Q 72.7 40.5 73.3 40.5
L 86.6 40.5
Q 87.15 40.5 87.6 40.85 Z
M 26.9 40.5
Q 27.55 40.5 28 40.95
L 35.85 48.85
Q 36.3 49.3 36.3 49.9 36.25 50.55 35.85 50.95
L 27.8 59
Q 27.35 59.45 26.75 59.45
L 13.4 59.45
Q 12.85 59.45 12.45 59.05 12 58.7 11.95 58.15 10.7 49.95 11.95 41.75 12 41.25 12.45 40.85 12.85 40.5 13.4 40.5
L 26.9 40.5 Z
M 50.05 63.75
Q 50.65 63.75 51.1 64.2
L 59.05 72.15
Q 59.5 72.6 59.5 73.2
L 59.5 86.6
Q 59.5 87.15 59.15 87.55 58.75 88 58.25 88.05 50.05 89.3 41.85 88.05 41.3 88 40.95 87.55 40.55 87.15 40.55 86.6
L 40.55 73.25
Q 40.55 72.65 41 72.2
L 49 64.2
Q 49.45 63.75 50.05 63.75 Z"/>
</g>

<g>
<path stroke="#202020" stroke-width="5" stroke-linejoin="round" stroke-linecap="round" fill="none" d="
M 65.5 29.8
L 70.2 34.5 92.75 34.5
Q 96.65 49.95 92.75 65.45
L 70.2 65.45 65.5 70.15 65.5 92.75
Q 50.05 96.65 34.55 92.75
L 34.55 70.15 29.85 65.45 7.25 65.45
Q 3.35 49.95 7.25 34.5
L 30 34.5 34.55 29.95
M 70.2 65.45
L 54.7 50 70.2 34.5
M 65.5 70.15
L 50.1 54.6 34.55 70.15
M 30 34.5
L 45.4 49.9 29.85 65.45"/>
</g>

<g>
<path stroke="#404040" stroke-width="5" stroke-linejoin="round" stroke-linecap="round" fill="none" d="
M 34.55 29.95
L 34.55 7.25
Q 50.05 3.35 65.5 7.25
L 65.5 29.8 50 45.3 34.55 29.95 Z"/>
</g>

<g>
<path stroke="#FFFFFF" stroke-width="4" stroke-linejoin="round" stroke-linecap="round" fill="none" d="
M 40.95 12.4
Q 41.3 12 41.85 11.9 50.05 10.7 58.25 11.9 58.75 12 59.15 12.4 59.5 12.85 59.5 13.4
L 59.5 26.7
Q 59.5 27.3 59.05 27.75
L 51.05 35.75
Q 50.6 36.2 50 36.2 49.35 36.2 48.95 35.75
L 41 27.85
Q 40.55 27.45 40.55 26.8
L 40.55 13.4
Q 40.55 12.85 40.95 12.4 Z"/>
</g>
</g>
</g>
</svg>
